img/icon/level-B.svg

<svg width="30" height="30" viewBox="0 0 30 30" fill="none" xmlns="http://www.w3.org/2000/svg">
<rect width="30" height="30" rx="4" fill="url(#paint0_linear)"/>
<path d="M10 21V9H15.874C17.2493 9 18.2415 9.2965 18.8504 9.88951C19.4593 10.4825 19.7638 11.2378 19.7638 12.1552V12.2224C19.7638 13.6434 19.0919 14.5105 17.748 14.8238C18.4094 14.9245 18.9501 15.2098 19.3701 15.6797C19.79 16.1385 20 16.7762 20 17.593V17.6601C20 19.8867 18.5669 21 15.7008 21H10ZM14.0787 18.1133H14.8346C15.5276 18.1133 15.874 17.7888 15.874 17.1399V17.0727C15.874 16.435 15.5118 16.1161 14.7874 16.1161H14.0787V18.1133ZM14.0787 13.5315H14.8976C15.2231 13.5315 15.4593 13.4699 15.6063 13.3469C15.7533 13.2238 15.8268 13.028 15.8268 12.7594V12.6923C15.8268 12.1441 15.5171 11.8699 14.8976 11.8699H14.0787V13.5315Z" fill="white"/>
<defs>
<linearGradient id="paint0_linear" x1="0" y1="0" x2="0" y2="30" gradientUnits="userSpaceOnUse">
<stop stop-color="#5986FB"/>
<stop offset="1" stop-color="#2D4EF5"/>
</linearGradient>
</defs>
</svg>

<svg width="30" height="30" fill="none" xmlns="http://www.w3.org/2000/svg"><rect width="30" height="30" rx="4" fill="url(#paint0_linear)"/><path d="M10 21V9h5.874c1.375 0 2.367.296 2.976.89.61.592.914 1.348.914 2.265v.067c0 1.421-.672 2.289-2.016 2.602.661.1 1.202.386 1.622.856.42.459.63 1.096.63 1.913v.067c0 2.227-1.433 3.34-4.3 3.34H10zm4.079-2.887h.756c.693 0 1.039-.324 1.039-.973v-.067c0-.638-.362-.957-1.087-.957h-.708v1.997zm0-4.582h.819c.325 0 .561-.061.708-.184.147-.123.22-.319.22-.588v-.067c0-.548-.309-.822-.928-.822h-.82v1.662z" fill="#fff"/><defs><linearGradient id="paint0_linear" x2="0" y2="30" gradientUnits="userSpaceOnUse"><stop stop-color="#5986FB"/><stop offset="1" stop-color="#2D4EF5"/></linearGradient></defs></svg>
